bernoullicharts/1_1_x_even_parity__bits.svg

<?xml version="1.0" encoding="utf-8" standalone="no"?>
<!DOCTYPE svg PUBLIC "-//W3C//DTD SVG 1.1//EN"
  "http://www.w3.org/Graphics/SVG/1.1/DTD/svg11.dtd">
<!-- Created with matplotlib (https://matplotlib.org/) -->
<svg height="345.6pt" version="1.1" viewBox="0 0 460.8 345.6" width="460.8pt" xmlns="http://www.w3.org/2000/svg" xmlns:xlink="http://www.w3.org/1999/xlink">
 <defs>
  <style type="text/css">
*{stroke-linecap:butt;stroke-linejoin:round;}
  </style>
 </defs>
 <g id="figure_1">
  <g id="patch_1">
   <path d="M 0 345.6 
L 460.8 345.6 
L 460.8 0 
L 0 0 
z
" style="fill:#ffffff;"/>
  </g>
  <g id="axes_1">
   <g id="patch_2">
    <path d="M 57.6 307.584 
L 414.72 307.584 
L 414.72 41.472 
L 57.6 41.472 
z
" style="fill:#ffffff;"/>
   </g>
   <g id="matplotlib.axis_1">
    <g id="xtick_1">
     <g id="line2d_1">
      <defs>
       <path d="M 0 0 
L 0 3.5 
" id="mb1cf3befba" style="stroke:#000000;stroke-width:0.8;"/>
      </defs>
      <g>
       <use style="stroke:#000000;stroke-width:0.8;" x="73.799924" xlink:href="#mb1cf3befba" y="307.584"/>
      </g>
     </g>
     <g id="text_1">
      <text style="font-family:DejaVu Sans;font-size:10px;font-style:normal;font-weight:normal;text-anchor:middle;" transform="rotate(-0, 73.799924, 322.182437)" x="73.799924" y="322.182437">0.0</text>
     </g>
    </g>
    <g id="xtick_2">
     <g id="line2d_2">
      <g>
       <use style="stroke:#000000;stroke-width:0.8;" x="139.406515" xlink:href="#mb1cf3befba" y="307.584"/>
      </g>
     </g>
     <g id="text_2">
      <text style="font-family:DejaVu Sans;font-size:10px;font-style:normal;font-weight:normal;text-anchor:middle;" transform="rotate(-0, 139.406515, 322.182437)" x="139.406515" y="322.182437">0.2</text>
     </g>
    </g>
    <g id="xtick_3">
     <g id="line2d_3">
      <g>
       <use style="stroke:#000000;stroke-width:0.8;" x="205.013105" xlink:href="#mb1cf3befba" y="307.584"/>
      </g>
     </g>
     <g id="text_3">
      <text style="font-family:DejaVu Sans;font-size:10px;font-style:normal;font-weight:normal;text-anchor:middle;" transform="rotate(-0, 205.013105, 322.182437)" x="205.013105" y="322.182437">0.4</text>
     </g>
    </g>
    <g id="xtick_4">
     <g id="line2d_4">
      <g>
       <use style="stroke:#000000;stroke-width:0.8;" x="270.619696" xlink:href="#mb1cf3befba" y="307.584"/>
      </g>
     </g>
     <g id="text_4">
      <text style="font-family:DejaVu Sans;font-size:10px;font-style:normal;font-weight:normal;text-anchor:middle;" transform="rotate(-0, 270.619696, 322.182437)" x="270.619696" y="322.182437">0.6</text>
     </g>
    </g>
    <g id="xtick_5">
     <g id="line2d_5">
      <g>
       <use style="stroke:#000000;stroke-width:0.8;" x="336.226287" xlink:href="#mb1cf3befba" y="307.584"/>
      </g>
     </g>
     <g id="text_5">
      <text style="font-family:DejaVu Sans;font-size:10px;font-style:normal;font-weight:normal;text-anchor:middle;" transform="rotate(-0, 336.226287, 322.182437)" x="336.226287" y="322.182437">0.8</text>
     </g>
    </g>
    <g id="xtick_6">
     <g id="line2d_6">
      <g>
       <use style="stroke:#000000;stroke-width:0.8;" x="401.832878" xlink:href="#mb1cf3befba" y="307.584"/>
      </g>
     </g>
     <g id="text_6">
      <text style="font-family:DejaVu Sans;font-size:10px;font-style:normal;font-weight:normal;text-anchor:middle;" transform="rotate(-0, 401.832878, 322.182437)" x="401.832878" y="322.182437">1.0</text>
     </g>
    </g>
    <g id="text_7">
     <text style="font-family:DejaVu Sans;font-size:10px;font-style:normal;font-weight:normal;text-anchor:middle;" transform="rotate(-0, 236.16, 335.860562)" x="236.16" y="335.860562">Probability</text>
    </g>
   </g>
   <g id="matplotlib.axis_2">
    <g id="ytick_1">
     <g id="line2d_7">
      <defs>
       <path d="M 0 0 
L -3.5 0 
" id="ma1ca7d12e4" style="stroke:#000000;stroke-width:0.8;"/>
      </defs>
      <g>
       <use style="stroke:#000000;stroke-width:0.8;" x="57.6" xlink:href="#ma1ca7d12e4" y="297.965869"/>
      </g>
     </g>
     <g id="text_8">
      <text style="font-family:DejaVu Sans;font-size:10px;font-style:normal;font-weight:normal;text-anchor:end;" transform="rotate(-0, 50.6, 301.765088)" x="50.6" y="301.765088">0</text>
     </g>
    </g>
    <g id="ytick_2">
     <g id="line2d_8">
      <g>
       <use style="stroke:#000000;stroke-width:0.8;" x="57.6" xlink:href="#ma1ca7d12e4" y="266.328113"/>
      </g>
     </g>
     <g id="text_9">
      <text style="font-family:DejaVu Sans;font-size:10px;font-style:normal;font-weight:normal;text-anchor:end;" transform="rotate(-0, 50.6, 270.127332)" x="50.6" y="270.127332">25</text>
     </g>
    </g>
    <g id="ytick_3">
     <g id="line2d_9">
      <g>
       <use style="stroke:#000000;stroke-width:0.8;" x="57.6" xlink:href="#ma1ca7d12e4" y="234.690357"/>
      </g>
     </g>
     <g id="text_10">
      <text style="font-family:DejaVu Sans;font-size:10px;font-style:normal;font-weight:normal;text-anchor:end;" transform="rotate(-0, 50.6, 238.489576)" x="50.6" y="238.489576">50</text>
     </g>
    </g>
    <g id="ytick_4">
     <g id="line2d_10">
      <g>
       <use style="stroke:#000000;stroke-width:0.8;" x="57.6" xlink:href="#ma1ca7d12e4" y="203.052601"/>
      </g>
     </g>
     <g id="text_11">
      <text style="font-family:DejaVu Sans;font-size:10px;font-style:normal;font-weight:normal;text-anchor:end;" transform="rotate(-0, 50.6, 206.85182)" x="50.6" y="206.85182">75</text>
     </g>
    </g>
    <g id="ytick_5">
     <g id="line2d_11">
      <g>
       <use style="stroke:#000000;stroke-width:0.8;" x="57.6" xlink:href="#ma1ca7d12e4" y="171.414845"/>
      </g>
     </g>
     <g id="text_12">
      <text style="font-family:DejaVu Sans;font-size:10px;font-style:normal;font-weight:normal;text-anchor:end;" transform="rotate(-0, 50.6, 175.214064)" x="50.6" y="175.214064">100</text>
     </g>
    </g>
    <g id="ytick_6">
     <g id="line2d_12">
      <g>
       <use style="stroke:#000000;stroke-width:0.8;" x="57.6" xlink:href="#ma1ca7d12e4" y="139.777089"/>
      </g>
     </g>
     <g id="text_13">
      <text style="font-family:DejaVu Sans;font-size:10px;font-style:normal;font-weight:normal;text-anchor:end;" transform="rotate(-0, 50.6, 143.576307)" x="50.6" y="143.576307">125</text>
     </g>
    </g>
    <g id="ytick_7">
     <g id="line2d_13">
      <g>
       <use style="stroke:#000000;stroke-width:0.8;" x="57.6" xlink:href="#ma1ca7d12e4" y="108.139333"/>
      </g>
     </g>
     <g id="text_14">
      <text style="font-family:DejaVu Sans;font-size:10px;font-style:normal;font-weight:normal;text-anchor:end;" transform="rotate(-0, 50.6, 111.938551)" x="50.6" y="111.938551">150</text>
     </g>
    </g>
    <g id="ytick_8">
     <g id="line2d_14">
      <g>
       <use style="stroke:#000000;stroke-width:0.8;" x="57.6" xlink:href="#ma1ca7d12e4" y="76.501577"/>
      </g>
     </g>
     <g id="text_15">
      <text style="font-family:DejaVu Sans;font-size:10px;font-style:normal;font-weight:normal;text-anchor:end;" transform="rotate(-0, 50.6, 80.300795)" x="50.6" y="80.300795">175</text>
     </g>
    </g>
    <g id="ytick_9">
     <g id="line2d_15">
      <g>
       <use style="stroke:#000000;stroke-width:0.8;" x="57.6" xlink:href="#ma1ca7d12e4" y="44.863821"/>
      </g>
     </g>
     <g id="text_16">
      <text style="font-family:DejaVu Sans;font-size:10px;font-style:normal;font-weight:normal;text-anchor:end;" transform="rotate(-0, 50.6, 48.663039)" x="50.6" y="48.663039">200</text>
     </g>
    </g>
    <g id="text_17">
     <text style="font-family:DejaVu Sans;font-size:10px;font-style:normal;font-weight:normal;text-anchor:middle;" transform="rotate(-90, 25.432812, 174.528)" x="25.432812" y="174.528">Average Bits Consumed Per Call</text>
    </g>
   </g>
   <g id="line2d_16">
    <path clip-path="url(#p57b8b05aa6)" d="M 73.832727 295.488 
L 77.145529 295.308298 
L 80.45833 295.429787 
L 83.771132 295.158967 
L 87.083933 295.267801 
L 90.396735 295.300704 
L 93.709536 295.267801 
L 97.022338 295.229836 
L 100.335139 295.308298 
L 103.647941 295.169091 
L 106.960742 295.029885 
L 110.273544 295.062789 
L 113.586345 295.080506 
L 116.899147 295.009637 
L 120.211948 295.029885 
L 123.52475 295.034947 
L 126.837551 294.888148 
L 130.150353 294.71857 
L 133.463154 294.834997 
L 136.775955 294.855245 
L 140.088757 294.708446 
L 143.401558 294.850183 
L 146.71436 294.756535 
L 150.027161 294.614798 
L 153.339963 294.584426 
L 156.652764 294.61986 
L 159.965566 294.440158 
L 163.278367 294.300951 
L 166.591169 294.543929 
L 169.90397 294.128842 
L 173.216772 294.44522 
L 176.529573 294.189586 
L 179.842375 294.376882 
L 183.155176 294.361696 
L 186.467978 294.164276 
L 189.780779 294.121249 
L 193.093581 294.022539 
L 196.406382 293.67832 
L 199.719184 293.939015 
L 203.031985 293.77703 
L 206.344787 293.410032 
L 209.657588 293.599859 
L 212.97039 293.465715 
L 216.283191 293.518866 
L 219.595993 293.589735 
L 222.908794 293.50368 
L 226.221596 293.417625 
L 229.534397 293.28095 
L 232.847199 293.187302 
L 236.16 292.670974 
L 239.472801 292.855739 
L 242.785603 292.559609 
L 246.098404 292.683629 
L 249.411206 292.650726 
L 252.724007 292.326755 
L 256.036809 292.149584 
L 259.34961 291.931916 
L 262.662412 292.06606 
L 265.975213 291.676283 
L 269.288015 291.696531 
L 272.600816 291.456084 
L 275.913618 291.919261 
L 279.226419 291.144769 
L 282.539221 290.970128 
L 285.852022 290.410773 
L 289.164824 290.879012 
L 292.477625 290.299408 
L 295.790427 290.446207 
L 299.103228 289.798266 
L 302.41603 289.545164 
L 305.728831 289.044022 
L 309.041633 288.398612 
L 312.354434 288.059455 
L 315.667236 288.477073 
L 318.980037 288.499852 
L 322.292839 287.4267 
L 325.60564 287.135632 
L 328.918442 286.753448 
L 332.231243 286.297865 
L 335.544045 285.108285 
L 338.856846 284.270517 
L 342.169647 283.45806 
L 345.482449 282.799994 
L 348.79525 281.592698 
L 352.108052 281.605353 
L 355.420853 279.881728 
L 358.733655 277.70505 
L 362.046456 277.601278 
L 365.359258 274.781721 
L 368.672059 273.020131 
L 371.984861 271.352189 
L 375.297662 266.199031 
L 378.610464 262.096247 
L 381.923265 260.09421 
L 385.236067 244.627143 
L 388.548868 233.128717 
L 391.86167 214.664923 
L 395.174471 175.143038 
L 398.487273 53.568 
" style="fill:none;stroke:#1f77b4;stroke-linecap:square;stroke-width:1.5;"/>
   </g>
   <g id="patch_3">
    <path d="M 57.6 307.584 
L 57.6 41.472 
" style="fill:none;stroke:#000000;stroke-linecap:square;stroke-linejoin:miter;stroke-width:0.8;"/>
   </g>
   <g id="patch_4">
    <path d="M 414.72 307.584 
L 414.72 41.472 
" style="fill:none;stroke:#000000;stroke-linecap:square;stroke-linejoin:miter;stroke-width:0.8;"/>
   </g>
   <g id="patch_5">
    <path d="M 57.6 307.584 
L 414.72 307.584 
" style="fill:none;stroke:#000000;stroke-linecap:square;stroke-linejoin:miter;stroke-width:0.8;"/>
   </g>
   <g id="patch_6">
    <path d="M 57.6 41.472 
L 414.72 41.472 
" style="fill:none;stroke:#000000;stroke-linecap:square;stroke-linejoin:miter;stroke-width:0.8;"/>
   </g>
   <g id="text_18">
    <text style="font-family:DejaVu Sans;font-size:12px;font-style:normal;font-weight:normal;text-anchor:middle;" transform="rotate(-0, 236.16, 35.472)" x="236.16" y="35.472">Avg. Bits Consumed by 1/(1+x) (Even Parity) Algorithm</text>
   </g>
   <g id="legend_1">
    <g id="patch_7">
     <path d="M 64.6 64.150125 
L 202.11875 64.150125 
Q 204.11875 64.150125 204.11875 62.150125 
L 204.11875 48.472 
Q 204.11875 46.472 202.11875 46.472 
L 64.6 46.472 
Q 62.6 46.472 62.6 48.472 
L 62.6 62.150125 
Q 62.6 64.150125 64.6 64.150125 
z
" style="fill:#ffffff;opacity:0.8;stroke:#cccccc;stroke-linejoin:miter;"/>
    </g>
    <g id="line2d_17">
     <path d="M 66.6 54.570438 
L 86.6 54.570438 
" style="fill:none;stroke:#1f77b4;stroke-linecap:square;stroke-width:1.5;"/>
    </g>
    <g id="line2d_18"/>
    <g id="text_19">
     <text style="font-family:DejaVu Sans;font-size:10px;font-style:normal;font-weight:normal;text-anchor:start;" transform="rotate(-0, 94.6, 58.070438)" x="94.6" y="58.070438">1/(1+x) (Even Parity)</text>
    </g>
   </g>
  </g>
 </g>
 <defs>
  <clipPath id="p57b8b05aa6">
   <rect height="266.112" width="357.12" x="57.6" y="41.472"/>
  </clipPath>
 </defs>
</svg>

<svg height="460.8" viewBox="0 0 460.8 345.6" width="614.4" xmlns="http://www.w3.org/2000/svg" xmlns:xlink="http://www.w3.org/1999/xlink"><defs><style>*{stroke-linecap:butt;stroke-linejoin:round}</style></defs><g id="figure_1"><path d="M0 345.6h460.8V0H0z" fill="#fff" id="patch_1"/><g id="axes_1"><path d="M57.6 307.584h357.12V41.472H57.6z" fill="#fff" id="patch_2"/><g id="matplotlib.axis_1"><g id="xtick_1"><g id="line2d_1"><defs><path d="M0 0v3.5" id="mb1cf3befba" stroke="#000" stroke-width=".8"/></defs><use x="73.8" xlink:href="#mb1cf3befba" y="307.584" stroke="#000" stroke-width=".8"/></g><text x="73.8" y="322.182" font-family="DejaVu Sans" font-size="10" font-weight="400" text-anchor="middle" id="text_1">0.0</text></g><g id="xtick_2"><use x="139.407" xlink:href="#mb1cf3befba" y="307.584" stroke="#000" stroke-width=".8" id="line2d_2"/><text x="139.407" y="322.182" font-family="DejaVu Sans" font-size="10" font-weight="400" text-anchor="middle" id="text_2">0.2</text></g><g id="xtick_3"><use x="205.013" xlink:href="#mb1cf3befba" y="307.584" stroke="#000" stroke-width=".8" id="line2d_3"/><text x="205.013" y="322.182" font-family="DejaVu Sans" font-size="10" font-weight="400" text-anchor="middle" id="text_3">0.4</text></g><g id="xtick_4"><use x="270.62" xlink:href="#mb1cf3befba" y="307.584" stroke="#000" stroke-width=".8" id="line2d_4"/><text x="270.62" y="322.182" font-family="DejaVu Sans" font-size="10" font-weight="400" text-anchor="middle" id="text_4">0.6</text></g><g id="xtick_5"><use x="336.226" xlink:href="#mb1cf3befba" y="307.584" stroke="#000" stroke-width=".8" id="line2d_5"/><text x="336.226" y="322.182" font-family="DejaVu Sans" font-size="10" font-weight="400" text-anchor="middle" id="text_5">0.8</text></g><g id="xtick_6"><use x="401.833" xlink:href="#mb1cf3befba" y="307.584" stroke="#000" stroke-width=".8" id="line2d_6"/><text x="401.833" y="322.182" font-family="DejaVu Sans" font-size="10" font-weight="400" text-anchor="middle" id="text_6">1.0</text></g><text x="236.16" y="335.861" font-family="DejaVu Sans" font-size="10" font-weight="400" text-anchor="middle" id="text_7">Probability</text></g><g id="matplotlib.axis_2"><g id="ytick_1"><g id="line2d_7"><defs><path d="M0 0h-3.5" id="ma1ca7d12e4" stroke="#000" stroke-width=".8"/></defs><use x="57.6" xlink:href="#ma1ca7d12e4" y="297.966" stroke="#000" stroke-width=".8"/></g><text x="50.6" y="301.765" font-family="DejaVu Sans" font-size="10" font-weight="400" text-anchor="end" id="text_8">0</text></g><g id="ytick_2"><use x="57.6" xlink:href="#ma1ca7d12e4" y="266.328" stroke="#000" stroke-width=".8" id="line2d_8"/><text x="50.6" y="270.127" font-family="DejaVu Sans" font-size="10" font-weight="400" text-anchor="end" id="text_9">25</text></g><g id="ytick_3"><use x="57.6" xlink:href="#ma1ca7d12e4" y="234.69" stroke="#000" stroke-width=".8" id="line2d_9"/><text x="50.6" y="238.49" font-family="DejaVu Sans" font-size="10" font-weight="400" text-anchor="end" id="text_10">50</text></g><g id="ytick_4"><use x="57.6" xlink:href="#ma1ca7d12e4" y="203.053" stroke="#000" stroke-width=".8" id="line2d_10"/><text x="50.6" y="206.852" font-family="DejaVu Sans" font-size="10" font-weight="400" text-anchor="end" id="text_11">75</text></g><g id="ytick_5"><use x="57.6" xlink:href="#ma1ca7d12e4" y="171.415" stroke="#000" stroke-width=".8" id="line2d_11"/><text x="50.6" y="175.214" font-family="DejaVu Sans" font-size="10" font-weight="400" text-anchor="end" id="text_12">100</text></g><g id="ytick_6"><use x="57.6" xlink:href="#ma1ca7d12e4" y="139.777" stroke="#000" stroke-width=".8" id="line2d_12"/><text x="50.6" y="143.576" font-family="DejaVu Sans" font-size="10" font-weight="400" text-anchor="end" id="text_13">125</text></g><g id="ytick_7"><use x="57.6" xlink:href="#ma1ca7d12e4" y="108.139" stroke="#000" stroke-width=".8" id="line2d_13"/><text x="50.6" y="111.939" font-family="DejaVu Sans" font-size="10" font-weight="400" text-anchor="end" id="text_14">150</text></g><g id="ytick_8"><use x="57.6" xlink:href="#ma1ca7d12e4" y="76.502" stroke="#000" stroke-width=".8" id="line2d_14"/><text x="50.6" y="80.301" font-family="DejaVu Sans" font-size="10" font-weight="400" text-anchor="end" id="text_15">175</text></g><g id="ytick_9"><use x="57.6" xlink:href="#ma1ca7d12e4" y="44.864" stroke="#000" stroke-width=".8" id="line2d_15"/><text x="50.6" y="48.663" font-family="DejaVu Sans" font-size="10" font-weight="400" text-anchor="end" id="text_16">200</text></g><text transform="rotate(-90 25.433 174.528)" x="25.433" y="174.528" font-family="DejaVu Sans" font-size="10" font-weight="400" text-anchor="middle" id="text_17">Average Bits Consumed Per Call</text></g><path clip-path="url(#p57b8b05aa6)" d="M73.833 295.488l3.313-.18 3.312.122 3.313-.271 3.313.109 3.313.033 3.313-.033 3.312-.038 3.313.078 3.313-.139 3.313-.14 3.313.034 3.312.018 3.313-.071 3.313.02 3.313.005 3.313-.147 3.312-.17 3.313.117 3.313.02 3.313-.147 3.313.142 3.312-.093 3.313-.142 3.313-.03 3.313.035 3.313-.18 3.312-.139 3.313.243 3.313-.415 3.313.316 3.313-.255 3.312.187 3.313-.015 3.313-.198 3.313-.043 3.313-.098 3.312-.345 3.313.261 3.313-.162 3.313-.367 3.313.19 3.312-.134 3.313.053 3.313.07 3.313-.085 3.313-.086 3.312-.137 3.313-.094 3.313-.516 3.313.185 3.313-.296 3.312.124 3.313-.033 3.313-.324 3.313-.177 3.313-.218 3.312.134 3.313-.39 3.313.02 3.313-.24 3.313.463 3.312-.774 3.313-.175 3.313-.56 3.313.469 3.313-.58 3.312.147 3.313-.648 3.313-.253 3.313-.501 3.313-.645 3.312-.34 3.313.418 3.313.023 3.313-1.073 3.313-.291 3.312-.383 3.313-.455 3.313-1.19 3.313-.837 3.313-.813 3.312-.658 3.313-1.207 3.313.012 3.313-1.723 3.313-2.177 3.312-.104 3.313-2.82 3.313-1.76 3.313-1.669 3.313-5.153 3.312-4.103 3.313-2.002 3.313-15.467 3.313-11.498 3.313-18.464 3.312-39.522 3.313-121.575" fill="none" stroke="#1f77b4" stroke-linecap="square" stroke-width="1.5" id="line2d_16"/><path d="M57.6 307.584V41.472" fill="none" stroke="#000" stroke-linecap="square" stroke-width=".8" id="patch_3"/><path d="M414.72 307.584V41.472" fill="none" stroke="#000" stroke-linecap="square" stroke-width=".8" id="patch_4"/><path d="M57.6 307.584h357.12" fill="none" stroke="#000" stroke-linecap="square" stroke-width=".8" id="patch_5"/><path d="M57.6 41.472h357.12" fill="none" stroke="#000" stroke-linecap="square" stroke-width=".8" id="patch_6"/><text x="236.16" y="35.472" font-family="DejaVu Sans" font-size="12" font-weight="400" text-anchor="middle" id="text_18">Avg. Bits Consumed by 1/(1+x) (Even Parity) Algorithm</text><g id="legend_1"><path d="M64.6 64.15h137.519q2 0 2-2V48.472q0-2-2-2H64.6q-2 0-2 2V62.15q0 2 2 2z" fill="#fff" opacity=".8" stroke="#ccc" id="patch_7"/><path d="M66.6 54.57h20" fill="none" stroke="#1f77b4" stroke-linecap="square" stroke-width="1.5" id="line2d_17"/><text x="94.6" y="58.07" font-family="DejaVu Sans" font-size="10" font-weight="400" id="text_19">1/(1+x) (Even Parity)</text></g></g></g><defs><clipPath id="p57b8b05aa6"><path d="M57.6 41.472h357.12v266.112H57.6z"/></clipPath></defs></svg>
